dist/svgs/core-ui-icons/free/cil-restaurant.svg

<svg xmlns="http://www.w3.org/2000/svg" viewBox="0 0 512 512"><path d="M224 160h-48V48h-32v112H96V48H64v124c0 45.505 34.655 83.393 80 90.715V472h32V262.715c45.345-7.322 80-45.21 80-90.715V48h-32zm-64 72c-27.811 0-51.524-16.722-60.33-40h120.66c-8.806 23.278-32.519 40-60.33 40zM413.567 40.187A138.648 138.648 0 00296 177.224V344h104v128h32V37.351zM400 312h-72V177.224a105.986 105.986 0 0172-100.911z"/></svg>

<svg xmlns="http://www.w3.org/2000/svg" viewBox="0 0 512 512">
  <path fill="var(--ci-primary-color, currentColor)" d="M224,160H176V48H144V160H96V48H64V172c0,45.505,34.655,83.393,80,90.715V472h32V262.715c45.345-7.322,80-45.21,80-90.715V48H224Zm-64,72c-27.811,0-51.524-16.722-60.33-40H220.33C211.524,215.278,187.811,232,160,232Z" class="ci-primary"/>
  <path fill="var(--ci-primary-color, currentColor)" d="M413.567,40.187A138.648,138.648,0,0,0,296,177.224V344H400V472h32V37.351ZM400,312H328V177.224A105.986,105.986,0,0,1,400,76.313Z" class="ci-primary"/>
</svg>
